X:093
T: Irish Girl
R: jig
M: 6/8
L: 1/8
K: G
E |\
D2E G2A | B2B BAG | D2D D2F | EFE EFA |\
DEG GAB | c2c cde | dBG GAB | ABA A2e |
DEG GAB | c2c cef | dBG GAB | ABA A2e | efge f2 :|

